!!!id: BC034
!!!page: 4
!!!COM: Anonymous (Vieille chanson française)
!!!PTL@@FR: Les 100 plus belles chansons
!!!OTL@@FR: Il était un petit navire
!!!PUB: La Bonne Chanson, inc.
!!!YEM: On ne peut reproduire, enregistrer ou diffuser en tout ou en partie le présent ouvrage, sous quelque procédé que ce soit, électronique, mécanique, photographique, sonore, magnétique ou autre, sans avoir obtenu au préalable l'autorisation écrite de l'éditrice.
!!!PDT: 2011
!!!SMA: 2012 Bibliothèque nationale du Québec; Biblothèque nationale du Canada
!!!AGN-Laforte: Chanson en laisse, 16:1(8+8)
!!!AGN-type: Chanson de marin
!!!AGN-rime: monorhyme /e/
**kern	**text	**text	**text	**text	**text	**text	**text
*clefG2	*	*	*	*	*	*	*
*k[f#]	*	*	*	*	*	*	*
*G:	*	*	*	*	*	*	*
!!LO:TX:a:t=Moderato
*M3/4	*	*	*	*	*	*	*
*	*vv:1	*vv:2	*vv:3	*vv:4	*vv:5	*vv:6	*vv:7
*	*pline:1Ha	*pline:2Ha	*pline:3Ha	*pline:4Ha	*pline:5Ha	*pline:6Ha	*pline:7Ha
8b8	Il	Il	Au	On	Le	On	L'un
8b	é-	en-	bout	ti-	sort	cherch[e]	vou-
8b	-tait	-tre-	de	-ra	tom-	a	-lait
=1	=1	=1	=1	=1	=1	=1	=1
4d	un	-prit	cinq	z'à	-ba	-lors	qu'on
4b	pe-	un	ou	la	sur	à	le
8cc	-tit	long	six	cour-	le	quel-	mît
8b	na-	voy-	se-	-te	plus	-le	à
=2	=2	=2	=2	=2	=2	=2	=2
4b	-vi-	-a-	-mai-	pail-	jeu-	sau-	fri-
8a	re,	-ge,	-nes,	-le,	-ne,	-ce,	-re,
*	*pline:1Har	*pline:2Har	*pline:3Har	*pline:4Har	*pline:5Har	*pline:6Har	*pline:7Har
8a	Il	Il	Au	On	Le	On	L'un
8a	é-	en-	bout	ti-	sort	cherch[e]	vou-
8a	-tait	-tre-	de	-ra	tom-	a-	-lait
!!LO:PB:g=original
=4	=4	=4	=4	=4	=4	=4	=4
4d	un	-prit	cinq	z'à	-ba	-lors	qu'on
4a	pe-	un	ou	la	sur	à	le
8b	-tit	long	six	cour-	le	quel-	mît
8a	na-	voy-	se-	-te	plus	-le	à
=5	=5	=5	=5	=5	=5	=5	=5
4a	-vi-	-a-	-mai-	pail-	jeu-	sau-	fri-
8g	re,	-ge,	-nes,	-le,	-ne,	-ce,	-re,
*	*pline:1Hb	*pline:2Hb	*pline:3Hb	*pline:4Hb	*pline:5Hb	*pline:6Hb	*pline:7Hb
8b	Qui	Sur	Les	Pour	C'est	Le	L'au-
8b	n'a-	la	vi-	sa-	donc	pauvr[e]	-tre
8b	-vait	mer	-vres	-voir	lui	en-	vou-
=6||	=6||	=6||	=6||	=6||	=6||	=6||	=6||
*M2/4	*	*	*	*	*	*	*
4b	ja-	Mé-	vin-	qui	qui	-fant-	-lait-
*	*bis	*bis	*bis	*bis	*bis	*bis	*bis
4b	-ja-	-Mé-	-vin-	qui	qui	-fant-	-lait-
=7	=7	=7	=7	=7	=7	=	=7
8b	-ja-	-Mé-	-vin-	qui	qui	-fant	-lait
*	*Xbis	*Xbis	*Xbis	*Xbis	*Xbis	*Xbis	*Xbis
8dd	-mais.	-di-	-rent	se-	fût	se-	le
8cc	na-	-ter-	à	-rait	dé-	-rait	fri-
8b	-vi-	-ra-	man-	man-	-si-	man-	cas-
!!LO:PB:g=original
=8	=8	=8	=8	=8	=8	=8	=8
8a	gué,	-née,	-quer,	-gé,	-gné,	-gé,	-ser,
*	*rp:e	*rp:e	*rp:e	*rp:e	*rp:e	*rp:e	*rp:e
*	*rf:ge	*rf:ne	*rf:ke	*rf:ʒe	*rf:ɲe	*rf:ʒe	*rf:se
*	*rs:a1	*rs:a2	*rs:a3	*rs:a4	*rs:a5	*rs:a4	*rs:a6
*	*pline:1Hbr	*pline:2Hbr	*pline:3Hbr	*pline:4Hbr	*pline:5Hbr	*pline:6Hbr	*pline:7Hbr
8g	Qui	Sur	Les	Pour	C'est	Le	L'au-
8f#	n'a-	la	vi-	sa-	donc	pauvr[e]	-tre
8g	-vait	mer	-vres	-voir	lui	en-	vou-
=9	=9	=9	=9	=9	=9	=9	=9
4a	ja-	Mé-	vin-	qui	qui	-fant-	-lait-
*	*bis	*bis	*bis	*bis	*bis	*bis	*bis
4a	-ja-	-Mé-	-vin-	qui	qui	-fant-	-lait-
=10	=10	=10	=10	=10	=10	=10	=10
8a	-ja-	-Mé-	-vin-	qui	qui	-fant	-lait
*	*Xbis	*Xbis	*Xbis	*Xbis	*Xbis	*Xbis	*Xbis
8cc	-mais	-di-	-rent	se-	fût	se-	le
8b	na-	-ter-	à	-rait	dé-	-rait	fri-
8a	-vi-	-ra-	man-	man-	-si-	man-	cas-
=11||	=11||	=11||	=11||	=11||	=11||	=11||	=11||
*M3/4	*	*	*	*	*	*	*
4g	-gué.	-née.	-quer.	-gé.	-gné.	-gé.	-ser.
*	*rp:e	*rp:e	*rp:e	*rp:e	*rp:e	*rp:e	*rp:e
*	*rf:ge	*rf:ne	*rf:ke	*rf:ʒe	*rf:ɲe	*rf:ʒe	*rf:se
*	*rs:a1	*rs:a2	*rs:a3	*rs:a4	*rs:a5	*rs:a4	*rs:a6
8r	.	.	.	.	.	.	.
==	==	==	==	==	==	==	==
*-	*-	*-	*-	*-	*-	*-	*-
!!!EED: Ève Poudrier
!!!EEV: 2025/June/10
